svg/pickup_truck.svg

<svg xmlns="http://www.w3.org/2000/svg" width="24" height="24" viewBox="0 0 24 24"><title>px_pickup_truck_24px</title><path d="M16 6h-5.5v4H1v5h2a3 3 0 0 0 6 0h6a3 3 0 0 0 6 0h2v-3a2 2 0 0 0-2-2h-2l-3-4m-4 1.5h3.5l2 2.5H12V7.5m-6 6A1.5 1.5 0 1 1 4.5 15 1.5 1.5 0 0 1 6 13.5m12 0a1.5 1.5 0 1 1-1.5 1.5 1.5 1.5 0 0 1 1.5-1.5z"/><path fill="none" d="M0 0h24v24H0z"/></svg>

<svg xmlns="http://www.w3.org/2000/svg" width="24" height="24" viewBox="0 0 24 24">
  <title>px_pickup_truck_24px</title>
  <path d="M16,6H10.5v4H1v5H3a3,3,0,0,0,6,0h6a3,3,0,0,0,6,0h2V12a2,2,0,0,0-2-2H19L16,6M12,7.5h3.5l2,2.5H12V7.5m-6,6A1.5,1.5,0,1,1,4.5,15,1.5,1.5,0,0,1,6,13.5m12,0A1.5,1.5,0,1,1,16.5,15,1.5,1.5,0,0,1,18,13.5Z"/>
  <rect width="24" height="24" fill="none"/>
</svg>
